svg/fluentui-system-icons/ic_fluent_arrow_circle_up_48_filled.svg

<svg width="48" height="48" viewBox="0 0 48 48" fill="none" xmlns="http://www.w3.org/2000/svg">
<path d="M24 44C12.9543 44 4 35.0457 4 24C4 12.9543 12.9543 4 24 4C35.0457 4 44 12.9543 44 24C44 35.0457 35.0457 44 24 44ZM15.3661 24.1339C15.8543 24.622 16.6457 24.622 17.1339 24.1339L22.75 18.5178V32.75C22.75 33.4404 23.3096 34 24 34C24.6904 34 25.25 33.4404 25.25 32.75V18.5178L30.8661 24.1339C31.3543 24.622 32.1457 24.622 32.6339 24.1339C33.122 23.6457 33.122 22.8543 32.6339 22.3661L24.8839 14.6161C24.3957 14.128 23.6043 14.128 23.1161 14.6161L15.3661 22.3661C14.878 22.8543 14.878 23.6457 15.3661 24.1339Z" fill="#212121"/>
</svg>

<svg xmlns="http://www.w3.org/2000/svg" width="48" height="48"><path d="M24 44C12.954 44 4 35.046 4 24S12.954 4 24 4s20 8.954 20 20-8.954 20-20 20Zm-8.634-19.866a1.25 1.25 0 0 0 1.768 0l5.616-5.616V32.75a1.25 1.25 0 1 0 2.5 0V18.518l5.616 5.616a1.25 1.25 0 0 0 1.768-1.768l-7.75-7.75a1.25 1.25 0 0 0-1.768 0l-7.75 7.75a1.25 1.25 0 0 0 0 1.768Z"/></svg>
